X:1
T:The City of Love
T:The City of Love
T:Ransom & Franklin Grabeel
T:Ransom & Franklin Grabeel, 1898
T:Public Domain Courtesy of the Cyber Hymnal™
T:Public Domain Courtesy of the Cyber Hymnal™
C:Ransom & Franklin Grabeel
Z:Public Domain
Z:Courtesy of the Cyber Hymnal™
%%score ( 1 2 ) ( 3 4 )
L:1/8
Q:1/4=100
M:4/4
K:A
V:1 treble 
V:2 treble 
V:3 bass 
V:4 bass 
V:1
 [A,C][B,D] | [CE][CE][EA][EB] [Ec]2 [Ec][EB] | [FA]2 [DF]2 [CE]2 [A,C][B,D] | %3
w: 1.~We are|wait- ing for the Mas- ter to|call us home; We are|
w: 2.~O our|hearts are full of care while on|earth we dwell, But there’s|
w: 3.~Here our|way is oft made sad by the|fruits of sin, But we|
 [CE][CE][EA][EB] [Ec]2 [EB][^DA] | [EB]6 [A,C][B,D] | [CE][CE][EA][EB] [Ec]2 [Ec][EB] | %6
w: long- ing for the man- sions a-|bove; Where the|bless- èd Sav- ior waits for His|
w: rap- ture, joy and glad- ness a-|bove. When our|wea- ry march is end- ed, we’ll|
w: turn our tear- ful eyes far a-|bove; Then our|hearts are all a- glow with the|
 [FA]2 [FA]2 [FB][FA][EG][DF] | [CE][CE][EA][FB] [Ec][Ec] [DB]2 | [CA]6 ||"^Quartet" [B,G][CA] | %10
w: child- ren’s com- ing, To as-|sign to them the ci- ty of|love.|Where our|
w: en- ter man- sions Je- sus|gives us in the ci- ty of|love.|There no|
w: joys ce- les- tial Wait- ing|for us in the ci- ty of|love.|God will|
 [DB]4- [DB][DG][DF][DE] | A6 [CA][DB] | [Ec]4- [Ec][DB][CA][Ec] | B6 ||"^Full Chorus" [Ec][Ed] | %15
w: wea- * ry souls shall|rest, sweet- ly|rest, * Lov- ing- ly|on|Je- sus’|
w: more * our steps shall|roam, sad- ly|roam, * But with Je-|sus|be at|
w: wipe * a- way each|tear, blind- ing|tear, * And will take|a-|way all|
 [Ae][Ae][Ae][Ad] [Ac]2 [Ec][EB] | [FA][FB][FA][DF] !fermata![FA]2 [EG][DF] | %17
w: breast, gen- tle breast. * * *||
w: home, bless- èd home. O we long|to reach the shore, Where our sor-|
w: fear, ev- ery fear. * * *||
 [CE][CE][EA][FB] [Ec]2 [DB]2 | [CA]6 |] %19
w: ||
w: rows shall be o’er, And our|hap-|
w: ||
V:2
 x2 | x8 | x8 | x8 | x8 | x8 | x8 | x8 | x6 || x2 | x8 | C2 DD C2 x2 | x8 | E2 ^DD E2 || x2 | x8 | %16
 x8 | x8 | x6 |] %19
V:3
 [A,,E,][A,,E,] | [A,,A,][A,,A,][A,,A,][E,G,] A,2 [A,,A,][C,A,] | %2
 [D,A,]2 [D,A,]2 [A,,A,]2 [A,,E,][A,,E,] | [A,,A,][A,,A,][C,A,][E,G,] A,2 [G,B,][F,B,] | %4
 G,6 [C,A,][B,,G,] | [A,,A,][A,,A,][C,A,][E,G,] A,2 [A,,A,][C,A,] | %6
 [D,A,]2 [D,A,]2 [D,A,][D,A,][D,A,][D,A,] | [A,,A,][A,,A,][C,A,][D,A,] [E,A,][E,A,] [E,G,]2 | %8
 [A,,A,]6 || z2 | z2 ([E,G,][E,G,] [E,G,])[E,B,][E,B,][E,B,] | [A,,A,]2 [D,F,][D,F,] [A,,E,]2 z2 | %12
 z2 A,A, A,A,A,A, | [E,G,]2 [B,,A,][B,,A,] [E,G,]2 || A,[A,B,] | %15
 [A,C][A,C][A,C][A,B,] A,2 [A,,A,][C,A,] | [D,A,][D,A,][D,A,][D,A,] !fermata![D,A,]2 [D,A,][D,A,] | %17
 [A,,A,][A,,A,][C,A,][D,A,] [E,A,]2 [E,G,]2 | [A,,A,]6 |] %19
V:4
 x2 | x4 A,2 x2 | x8 | x4 A,2 x2 | (E,4- E,D,) x2 | x4 A,2 x2 | x8 | x8 | x6 || x2 | x8 | x8 | %12
 x2 (A,A, A,)A,A,A, | x6 || A, x | x4 A,2 x2 | x8 | x8 | x6 |] %19

